X:16
T:Denis Murphy's Polka
M:2/4
L:1/16
K:D major
%
"D"fgfe dedB | A2D2 F2A2 | "G"G2E2 e3d | \
"A"c2B2 B2A2 |"D"fgfe dedB | A2D2 F2A2 |
 "G"G2E2 "A"e3f | [1 "D"e2d2 d4 :| [2 "D"e2d2 d2 cB |\
|: "D"A2f2 fef2 | "G(A)"A2g2 gfg2 | "D"A2f2 fef2 |
"A"efed B2A2 |"D"A2f2 fef2 | "G(A)"A2g2 gfga | \
"G"b2a2 "A"gecd | [1 "D"e2d2 d2 cB :| [2 "D"e2d2 d4 |]
